X:48
T:Speed the Plow. LIT.048
M:2/4
Q:1/4=150
L:1/8
B:Wm. Litten MS, 1802
Z:Village Music Project 2017 Anne Wride
K:A
A2 Ac | ef ec | ea ec | ef ec | dd dB | cc cA | GB BA | GB B2 |
A2 Ac | ef ec | ea ec | ef ec | de  dB | cd cA | FA GB | AA A2 :|
|: aa aA | aA eA | aA gA | fA eA | dd dB | cc cA | GB BA | GB Be |
((3cBA) eA | fA eA | fd Bf | ec Ae | de cd | Bc AB | FA GB | AA A2:|

